X:1
T:Suddenly There's A Valley
T:Suddenly There's A Valley
T:Chuck Meyer & Biff Jones
C:Chuck Meyer & Biff Jones
Z:All Rights Reserved
L:1/8
M:3/4
K:C
V:1 treble 
%%MIDI program 40
%%MIDI control 7 100
%%MIDI control 10 64
V:1
 z2 z2 EG ||"C" A4 GE |"Fm6" D4 C2 |"C" E2 G4- | G4 EG | B4 AG |"Fm" C4 D2 |"C" E6- | E6 | %9
w: When you've|climbed the *|high- est|moun- tain|* When a|cloud holds the|sun- shine|in||
"F" d3 c A2 |"Fm" G4 C2 |"C" E2 G4- | G4 EG |"F" A4 GE |"Fm6" D4 C2 |"C" EC- C4- | C4 EG | %17
w: Sud- den- ly|there's a|val- ley|* where the|earth knows *|peace with|man * *|* When a|
"C" A4 GE |"Fm" D4 C2 |"C" E2 G4- | G4 EG | B4 AG |"Fm" C4 D2 |"C" E6- | E6 |"F" d3 c A2 | %26
w: storm hides the|dis- tant|rain- bow|* And you|think you can't|find a|friend||SUD DEN- LY|
"Fm" G4 C2 |"C" E2 G4- | G4 EG |"F" A4 GE |"Fm" D4 C2 |"C" EC- C4- | C4 G2 |"Dm7" A4 A2 | %34
w: THERE"S A|VAL LEY|* Where- *|Friend- ships *|Nev- er|end * *|* Touched|on- ly|
"G7" A4 A2 |"C" G2 E4- | E4 G2 |"Dm7" A4 GA |"Fm" C4 D2 |"C" E6- | E4 c2 |"Am7" c4 AB | %42
w: by the|sea- sons|* Swept|clean by the|wav- ing|grain|* Sur-|veyed by a|
"Ab+" c4 d2 |"C" c2 A4- |"Am6" A4 B2 |"Am" c2"Ab+" c2"Am7" A2 |"D9" B4 c2 |"G7" d6- | d4 ed | %49
w: hap- py|blue- bird|* And|kissed by the|fall- ing|rain|* When you|
"C" c4 AG |"Fm" E4 C2 |"C" E2 G4- | G4 EG | B4 AG |"Fm" C4 D2 |"C" E6- | E6 |"F" d3 c A2 | %58
w: think there's no|bright to-|mor- rows|* And you|feel you can't|try a-|gain||SUD- DEN- LY|
"Fm" G4 C2 |"C" E2 G4- | G4 EG |"F" A4 GE |"Fm6" D4 C2 |"C" E2 C4- | C6 |] %65
w: THERE"S A|VAL- LEY|* where *|hope and *|love be-|gin- *||

